X: 968
T: All The Night I Lay With Jockey
R: three-two
M: 3/2
K: Cmajor
A3G E2c2 GEDC|E2c2 c2E2 G2c2|A3G E2c2 GEDC|D2A2 A2D2 F4:|
|:E2G2 AGFE GEDC|E2G2 AGFE G2c2|E2G2 AGFE GEDC|D2A2 A2D2 F4:|
|:C3D E2c2 GEDC|E2c2 c2E2 G2c2|C3D E2c2 GEDC|D2A2 A2D2 F4:|
|:E2c2 c2E2 ABcA|EFGE c2E2 G2c2|E2c2 c2E2 ABcA|B2A2 A2D2 F4:|

